images/people/people-04.svg

<?xml version="1.0" standalone="no"?><!DOCTYPE svg PUBLIC "-//W3C//DTD SVG 1.1//EN" "http://www.w3.org/Graphics/SVG/1.1/DTD/svg11.dtd"><svg width="120px" height="192px" version="1.1" xmlns="http://www.w3.org/2000/svg" xmlns:xlink="http://www.w3.org/1999/xlink" xml:space="preserve" style="fill-rule:evenodd;clip-rule:evenodd;stroke-linejoin:round;stroke-miterlimit:1.41421;"><g><g id="people-04" transform="matrix(1,0,0,1,-1500,-48)"><g transform="matrix(1,0,0,1,0,-12)"><path d="M1552.51,231.02l-0.943,6.871l6.697,-0.172l0.516,-7.384l-6.27,0.685Z" style="fill:#2a2b2a;fill-rule:nonzero;"/></g><g transform="matrix(1,0,0,1,0,-12)"><path d="M1557.34,241.519l1.353,9.981l5.28,0l0.773,-2.189l-1.377,-9.057l-6.029,1.265Z" style="fill:#2a2b2a;fill-rule:nonzero;"/></g><g transform="matrix(1,0,0,1,0,-12)"><path d="M1561.89,124.339l-4.286,0l-4.616,-5.935l0.824,-12.694l8.234,-1.375l5.115,2.034l-0.163,12.035l-5.108,5.935Z" style="fill:#e1c5b5;fill-rule:nonzero;"/></g><g transform="matrix(1,0,0,1,0,-12)"><path d="M1566.68,127.905l-2.834,-1.889l-2.061,-5.839l-4.757,1.357l-1.51,3.709l-3.262,1.632l7.103,11.462l7.321,-10.432Z" style="fill:#e1c5b5;fill-rule:nonzero;"/></g><g transform="matrix(1,0,0,1,0,-12)"><path d="M1553.5,110.956l-2.822,0.047l-0.223,4.916l2.879,-0.15l0.166,-4.813Z" style="fill:#e1c5b5;fill-rule:nonzero;"/></g><g transform="matrix(1,0,0,1,0,-12)"><path d="M1566.79,111.625l2.848,0.775l-0.223,4.122l-2.518,0.098l-0.107,-4.995Z" style="fill:#e1c5b5;fill-rule:nonzero;"/></g><g transform="matrix(1,0,0,1,0,-12)"><path d="M1547.85,166.031l4.661,64.989l5.41,0l1.201,-54.858l-2.794,23.96l1.078,41.46l5.923,-1.288l3.094,-39.927l4.033,-33.822l-22.606,-0.514Z" style="fill:#313156;fill-rule:nonzero;"/></g><g transform="matrix(1,0,0,1,0,-12)"><path d="M1558.58,176.062l-2.72,26.107l1.282,28.86l-5.317,-10.071l-2.576,-35.69l9.331,-9.206Z" style="fill:#171817;fill-opacity:0.5;fill-rule:nonzero;"/></g><g transform="matrix(1,0,0,1,0,-12)"><path d="M1577.76,161.99l2.349,5.768l-0.451,7.992l-2.655,-1.018l-0.54,-6.748l0.22,2.034l-2.4,0.107l0.871,-5.549l-6,-25.23l4.693,-0.784l3.913,23.428Z" style="fill:#e1c5b5;fill-rule:nonzero;"/></g><g transform="matrix(1,0,0,1,0,-12)"><path d="M1541.66,162.018l-1.775,4.729l0.156,7.378l2.899,-0.381l0.587,-6.746l-0.231,2.033l2.494,0.344l-0.837,-5.843l3.696,-25.741l-3.753,-0.745l-3.236,24.972Z" style="fill:#e1c5b5;fill-rule:nonzero;"/></g><g transform="matrix(1,0,0,1,0,-12)"><path d="M1554.62,125.746l-8.725,3.705l-1.173,8.886l3.81,0.225l0.625,-1.975l-1.373,29.442l22.668,0.516l-1.889,-29.709l0.59,2.511l4.694,-0.785l-1.333,-7.222l-8.339,-5.065l-9.555,-0.529Z" style="fill:#ef9b75;fill-rule:nonzero;"/></g><g transform="matrix(1,0,0,1,0,-12)"><path d="M1568.04,106.375l-3.914,-3.457l-7.522,-0.086l-3.816,3.837l-0.9,4.326l1.527,3.258l13.651,-0.13l1.306,-2.105l-0.332,-5.643Z" style="fill:#2a2b2a;fill-rule:nonzero;"/></g></g></g></svg>

<?xml version="1.0" encoding="UTF-8" standalone="no"?>
<!DOCTYPE svg PUBLIC "-//W3C//DTD SVG 1.1//EN" "http://www.w3.org/Graphics/SVG/1.1/DTD/svg11.dtd">
<svg width="100%" height="100%" viewBox="0 0 140 220" version="1.1" xmlns="http://www.w3.org/2000/svg" xmlns:xlink="http://www.w3.org/1999/xlink" xml:space="preserve" xmlns:serif="http://www.serif.com/" style="fill-rule:evenodd;clip-rule:evenodd;stroke-linejoin:round;stroke-miterlimit:2;">
    <g id="people-04" transform="matrix(1.27,0,0,1.27,-1911.2,-84.8)">
        <g transform="matrix(1,0,0,1,0,-12)">
            <path d="M1552.51,231.021L1551.57,237.892L1558.27,237.72L1558.78,230.336L1552.51,231.021Z" style="fill:rgb(42,43,42);fill-rule:nonzero;"/>
        </g>
        <g transform="matrix(1,0,0,1,0,-12)">
            <path d="M1557.34,241.519L1558.69,251.5L1563.98,251.5L1564.75,249.311L1563.37,240.254L1557.34,241.519Z" style="fill:rgb(42,43,42);fill-rule:nonzero;"/>
        </g>
        <g transform="matrix(1,0,0,1,0,-12)">
            <path d="M1561.89,124.339L1557.6,124.339L1552.99,118.404L1553.81,105.71L1562.04,104.335L1567.16,106.369L1567,118.404L1561.89,124.339Z" style="fill:rgb(225,197,181);fill-rule:nonzero;"/>
        </g>
        <g transform="matrix(1,0,0,1,0,-12)">
            <path d="M1566.68,127.905L1563.85,126.016L1561.79,120.177L1557.03,121.534L1555.52,125.243L1552.26,126.875L1559.36,138.337L1566.68,127.905Z" style="fill:rgb(225,197,181);fill-rule:nonzero;"/>
        </g>
        <g transform="matrix(1,0,0,1,0,-12)">
            <path d="M1553.5,110.956L1550.68,111.003L1550.45,115.919L1553.33,115.769L1553.5,110.956Z" style="fill:rgb(225,197,181);fill-rule:nonzero;"/>
        </g>
        <g transform="matrix(1,0,0,1,0,-12)">
            <path d="M1566.79,111.625L1569.64,112.4L1569.41,116.522L1566.89,116.62L1566.79,111.625Z" style="fill:rgb(225,197,181);fill-rule:nonzero;"/>
        </g>
        <g transform="matrix(1,0,0,1,0,-12)">
            <path d="M1547.85,166.031L1552.51,231.02L1557.92,231.02L1559.12,176.162L1556.33,200.122L1557.41,241.582L1563.33,240.294L1566.42,200.367L1570.46,166.545L1547.85,166.031Z" style="fill:rgb(49,49,86);fill-rule:nonzero;"/>
        </g>
        <g transform="matrix(1,0,0,1,0,-12)">
            <path d="M1558.58,176.063L1555.86,202.17L1557.14,231.029L1551.82,220.959L1549.25,185.268L1558.58,176.063Z" style="fill:rgb(23,24,23);fill-opacity:0.5;fill-rule:nonzero;"/>
        </g>
        <g transform="matrix(1,0,0,1,0,-12)">
            <path d="M1577.77,161.99L1580.11,167.758L1579.66,175.75L1577.01,174.732L1576.47,167.984L1576.69,170.018L1574.29,170.125L1575.16,164.576L1569.16,139.346L1573.85,138.562L1577.77,161.99Z" style="fill:rgb(225,197,181);fill-rule:nonzero;"/>
        </g>
        <g transform="matrix(1,0,0,1,0,-12)">
            <path d="M1541.66,162.018L1539.88,166.747L1540.04,174.125L1542.94,173.744L1543.53,166.998L1543.29,169.031L1545.79,169.375L1544.95,163.532L1548.65,137.791L1544.89,137.046L1541.66,162.018Z" style="fill:rgb(225,197,181);fill-rule:nonzero;"/>
        </g>
        <g transform="matrix(1,0,0,1,0,-12)">
            <path d="M1554.62,125.746L1545.9,129.451L1544.73,138.337L1548.54,138.562L1549.16,136.587L1547.79,166.029L1570.46,166.545L1568.57,136.836L1569.16,139.347L1573.85,138.562L1572.52,131.34L1564.18,126.275L1554.62,125.746Z" style="fill:rgb(239,155,117);fill-rule:nonzero;"/>
        </g>
        <g transform="matrix(1,0,0,1,0,-12)">
            <path d="M1568.04,106.375L1564.12,102.918L1556.6,102.832L1552.79,106.669L1551.89,110.995L1553.41,114.253L1567.07,114.123L1568.37,112.018L1568.04,106.375Z" style="fill:rgb(42,43,42);fill-rule:nonzero;"/>
        </g>
    </g>
</svg>
